!!!OTL: Genzhe maoweiyuan naogeming
!!!ARE: Asia, China,ÿHubei Hanchuan
!! I, 422
!!!SCT: C2164
!!!YEM: Copyright 1995, estate of Helmut Schaffrath.
**kern
*ICvox
*Ivox
*M2/4
*k[f#c#]
*D:
{8f#
8a
8b
8dd
=1
8f#
4a
8b
=2
8dd
16b
16dd
8ee
8dd
=3
8b
4.dd}
=4
{8b
4a
8b
=5
8dd
16b
16dd
8ee
8dd
=6
8.b
16dd
16b
16a
8f#
=7
2a}
==
!!!AGN: Xiaodiao, Macheng diao
!!!ONB: ESAC (Essen Associative Code) Database: SENGANSU
!!!AMT: simple duple
!!!AIN: vox
!!!EED: Helmut Schaffrath
!!!EEV: 1.0
*-
